applications/plugins/org.csstudio.opibuilder.imagelib/SymbolLibrary/SVG/Fluid/Pumps/PV Liquid Ring Vacuum Pump On.svg

<?xml version="1.0" encoding="UTF-8" standalone="no"?>
<!-- Generated by Microsoft Visio 11.0, SVG Export, v1.0 FL_EF110109.svg Page-1 -->

<!--
/*******************************************************************************
* Copyright (c) 2010-2014 ITER Organization.
* All rights reserved. This program and the accompanying materials
* are made available under the terms of the Eclipse Public License v1.0
* which accompanies this distribution, and is available at
* http://www.eclipse.org/legal/epl-v10.html
******************************************************************************/
-->
<svg
   xmlns:v="http://schemas.microsoft.com/visio/2003/SVGExtensions/"
   xmlns:dc="http://purl.org/dc/elements/1.1/"
   xmlns:cc="http://creativecommons.org/ns#"
   xmlns:rdf="http://www.w3.org/1999/02/22-rdf-syntax-ns#"
   xmlns:svg="http://www.w3.org/2000/svg"
   xmlns="http://www.w3.org/2000/svg"
   xmlns:sodipodi="http://sodipodi.sourceforge.net/DTD/sodipodi-0.dtd"
   xmlns:inkscape="http://www.inkscape.org/namespaces/inkscape"
   width="0.382083in"
   height="0.49244in"
   viewBox="0 0 27.51 35.4557"
   xml:space="preserve"
   color-interpolation-filters="sRGB"
   class="st8"
   id="svg2"
   version="1.1"
   inkscape:version="0.48.2 r9819"
   sodipodi:docname="FL_EF110109.svg"><metadata
   id="metadata168"><rdf:RDF><cc:Work
       rdf:about=""><dc:format>image/svg+xml</dc:format><dc:type
         rdf:resource="http://purl.org/dc/dcmitype/StillImage" /></cc:Work></rdf:RDF></metadata><defs
   id="defs166">
		
		<v:pageProperties
   v:shadowOffsetY="-8.50393"
   v:shadowOffsetX="8.50393"
   v:drawingUnits="24"
   v:pageScale="0.0393701"
   v:drawingScale="0.0393701" />
		
		
	
			
			
			
			
			
			
			
			
			
		
			
			
			
		
				
				
			
				
				
			
				
				
				
				
				
			
				
				
			
				
				
				
			
				
				
				
			
				
				
				
			
				
				
				
			
				
				
				
			
				
				
			
					
					
					
				
					
					
				
					
					
					
				
					
					
				
					
					
					
				
					
					
				
					
					
					
				
					
					
				
					
					
					
				
					
					
				
					
					
					
				
					
					
					
				
					
					
				
					
					
					
				
						
						
						
					
						
						
					
						
						
						
					
						
						
					
						
						
						
					
						
						
					</defs><sodipodi:namedview
   pagecolor="#ffffff"
   bordercolor="#666666"
   borderopacity="1"
   objecttolerance="10"
   gridtolerance="10"
   guidetolerance="10"
   inkscape:pageopacity="0"
   inkscape:pageshadow="2"
   inkscape:window-width="1366"
   inkscape:window-height="706"
   id="namedview164"
   showgrid="false"
   inkscape:zoom="5.3249579"
   inkscape:cx="-12.102271"
   inkscape:cy="22.1598"
   inkscape:window-x="-8"
   inkscape:window-y="-8"
   inkscape:window-maximized="1"
   inkscape:current-layer="svg2" />
	<v:documentProperties
   v:langID="1036"
   v:metric="true"
   v:viewMarkup="false" />
	<style
   type="text/css"
   id="style4">
	
		.st1 {fill:#ffffff;stroke:none;stroke-linecap:round;stroke-linejoin:round;stroke-width:0.719999}
		.st2 {fill:#ffffff;stroke:none;stroke-width:0.999999}
		.st3 {fill:none;stroke:none;stroke-width:0.999999}
		.st4 {fill:none}
		.st5 {stroke:#000000;stroke-linecap:round;stroke-linejoin:round;stroke-width:0.72}
		.st6 {fill:none;stroke:none;stroke-linecap:round;stroke-linejoin:round;stroke-width:0.24}
		.st7 {fill:none;stroke:#000000;stroke-linecap:round;stroke-linejoin:round;stroke-width:0.72}
		.st8 {fill:none;fill-rule:evenodd;font-size:12;overflow:visible;stroke-linecap:square;stroke-miterlimit:3}
	
	</style>
	<g
   id="g4210"><rect
     x="0.966214"
     y="0.72000265"
     width="0.0159449"
     height="0.0212598"
     class="st1"
     id="rect16"
     style="fill:#ffffff;stroke:none" /><rect
     x="26.462114"
     y="34.714504"
     width="0.0159449"
     height="0.0212598"
     class="st1"
     id="rect21"
     style="fill:#ffffff;stroke:none" /><path
     d="m 24.799999,24.208624 a 12.7568,12.7568 0 0 0 1.71,-6.38 12.7568,12.7568 0 0 0 -1.71,-6.38 12.7568,12.7568 0 0 0 -11.04,-6.38 12.7568,12.7568 0 0 0 -5.3199996,1.16 12.7568,12.7568 0 0 0 -7.44,11.6 12.7568,12.7568 0 0 0 7.44,11.6 12.7568,12.7568 0 0 0 5.3199996,1.16 12.7568,12.7568 0 0 0 11.04,-6.38 z"
     class="st2"
     id="path29"
     inkscape:connector-curvature="0"
     style="fill:#a6a6a6;stroke:none;fill-opacity:1" /><path
     style="fill:none;stroke:none"
     inkscape:connector-curvature="0"
     id="path37"
     class="st3"
     d="m 9.250578,13.327574 1.51,1.49 -1.51,-1.49 z" /><path
     style="fill:none"
     inkscape:connector-curvature="0"
     id="path42"
     class="st4"
     d="m 9.250578,13.327574 1.51,1.49 -1.51,-1.49 z" /><path
     style="stroke:#000000;stroke-width:0.72000003;stroke-linecap:round;stroke-linejoin:round"
     inkscape:connector-curvature="0"
     id="path44"
     class="st5"
     d="m 9.250578,13.327574 1.51,1.49" /><path
     style="fill:none;stroke:none"
     inkscape:connector-curvature="0"
     id="path52"
     class="st3"
     d="m 7.380438,17.837774 2.12,0 -2.12,0 z" /><path
     style="fill:none"
     inkscape:connector-curvature="0"
     id="path57"
     class="st4"
     d="m 7.380438,17.837774 2.12,0 -2.12,0 z" /><path
     style="stroke:#000000;stroke-width:0.72000003;stroke-linecap:round;stroke-linejoin:round"
     inkscape:connector-curvature="0"
     id="path59"
     class="st5"
     d="m 7.380438,17.837774 2.12,0" /><path
     style="fill:none;stroke:none"
     inkscape:connector-curvature="0"
     id="path67"
     class="st3"
     d="m 9.250578,22.348074 1.55,-1.46 -1.55,1.46 z" /><path
     style="fill:none"
     inkscape:connector-curvature="0"
     id="path72"
     class="st4"
     d="m 9.250578,22.348074 1.55,-1.46 -1.55,1.46 z" /><path
     style="stroke:#000000;stroke-width:0.72000003;stroke-linecap:round;stroke-linejoin:round"
     inkscape:connector-curvature="0"
     id="path74"
     class="st5"
     d="m 9.250578,22.348074 1.55,-1.46" /><path
     style="fill:none;stroke:none"
     inkscape:connector-curvature="0"
     id="path82"
     class="st3"
     d="m 18.271078,22.348074 -1.5,-1.52 1.5,1.52 z" /><path
     style="fill:none"
     inkscape:connector-curvature="0"
     id="path87"
     class="st4"
     d="m 18.271078,22.348074 -1.5,-1.52 1.5,1.52 z" /><path
     style="stroke:#000000;stroke-width:0.72000003;stroke-linecap:round;stroke-linejoin:round"
     inkscape:connector-curvature="0"
     id="path89"
     class="st5"
     d="m 18.271078,22.348074 -1.5,-1.52" /><path
     style="fill:none;stroke:none"
     inkscape:connector-curvature="0"
     id="path97"
     class="st3"
     d="m 20.131178,17.837774 -2.07,0 2.07,0 z" /><path
     style="fill:none"
     inkscape:connector-curvature="0"
     id="path102"
     class="st4"
     d="m 20.131178,17.837774 -2.07,0 2.07,0 z" /><path
     style="stroke:#000000;stroke-width:0.72000003;stroke-linecap:round;stroke-linejoin:round"
     inkscape:connector-curvature="0"
     id="path104"
     class="st5"
     d="m 20.131178,17.837774 -2.07,0" /><rect
     x="0.95207798"
     y="0.71993399"
     width="25.511801"
     height="34.015701"
     class="st6"
     id="rect109"
     style="fill:none;stroke:none" /><path
     d="m 24.800519,24.208534 -16.3599996,5.22 16.3599996,-5.22 z"
     class="st3"
     id="path120"
     inkscape:connector-curvature="0"
     style="fill:none;stroke:none" /><path
     d="m 24.800519,24.208534 -16.3599996,5.22 16.3599996,-5.22 z"
     class="st4"
     id="path125"
     inkscape:connector-curvature="0"
     style="fill:none" /><path
     d="m 24.800519,24.208534 -16.3599996,5.22"
     class="st5"
     id="path127"
     inkscape:connector-curvature="0"
     style="stroke:#000000;stroke-width:0.72000003;stroke-linecap:round;stroke-linejoin:round" /><path
     style="fill:none;stroke:#000000;stroke-width:0.72000003;stroke-linecap:round;stroke-linejoin:round"
     inkscape:connector-curvature="0"
     id="path132"
     class="st7"
     d="m 24.799999,24.208624 a 12.7568,12.7568 0 0 0 1.71,-6.38 12.7568,12.7568 0 0 0 -1.71,-6.38 12.7568,12.7568 0 0 0 -11.04,-6.38 12.7568,12.7568 0 0 0 -5.3199996,1.16 12.7568,12.7568 0 0 0 -7.44,11.6 12.7568,12.7568 0 0 0 7.44,11.6 12.7568,12.7568 0 0 0 5.3199996,1.16 12.7568,12.7568 0 0 0 11.04,-6.38 z" /><path
     d="m 24.800519,11.457224 -16.3599996,-5.22 16.3599996,5.22 z"
     class="st3"
     id="path140"
     inkscape:connector-curvature="0"
     style="fill:none;stroke:none" /><path
     d="m 24.800519,11.457224 -16.3599996,-5.22 16.3599996,5.22 z"
     class="st4"
     id="path145"
     inkscape:connector-curvature="0"
     style="fill:none" /><path
     d="m 24.800519,11.457224 -16.3599996,-5.22"
     class="st5"
     id="path147"
     inkscape:connector-curvature="0"
     style="stroke:#000000;stroke-width:0.72000003;stroke-linecap:round;stroke-linejoin:round" /><path
     d="m 18.270589,13.328044 -1.48,1.53 a 4.25226,4.25226 0 0 1 1.22,2.98 4.25226,4.25226 0 0 1 -1.25,3 4.25226,4.25226 0 0 1 -1.39,0.93 4.25226,4.25226 0 0 1 -1.61,0.32 4.25226,4.25226 0 0 1 -3.01,-1.25 4.25226,4.25226 0 0 1 -1.2499996,-3 4.25226,4.25226 0 0 1 1.2499996,-3.01 4.25226,4.25226 0 0 1 1.39,-0.93 4.25226,4.25226 0 0 1 1.62,-0.32 4.25226,4.25226 0 0 1 3,1.25 l 1.51,-1.5 z"
     class="st3"
     id="path155"
     inkscape:connector-curvature="0"
     style="fill:none;stroke:none" /><path
     d="m 18.270589,13.328044 -1.48,1.53 a 4.25226,4.25226 0 0 1 1.22,2.98 4.25226,4.25226 0 0 1 -1.25,3 4.25226,4.25226 0 0 1 -1.39,0.93 4.25226,4.25226 0 0 1 -1.61,0.32 4.25226,4.25226 0 0 1 -3.01,-1.25 4.25226,4.25226 0 0 1 -1.2499996,-3 4.25226,4.25226 0 0 1 1.2499996,-3.01 4.25226,4.25226 0 0 1 1.39,-0.93 4.25226,4.25226 0 0 1 1.62,-0.32 4.25226,4.25226 0 0 1 3,1.25 l 1.51,-1.5 z"
     class="st4"
     id="path160"
     inkscape:connector-curvature="0"
     style="fill:none" /><path
     d="m 18.270589,13.328044 -1.48,1.53 a 4.25226,4.25226 0 0 1 1.22,2.98 4.25226,4.25226 0 0 1 -1.25,3 4.25226,4.25226 0 0 1 -1.39,0.93 4.25226,4.25226 0 0 1 -1.61,0.32 4.25226,4.25226 0 0 1 -3.01,-1.25 4.25226,4.25226 0 0 1 -1.2499996,-3 4.25226,4.25226 0 0 1 1.2499996,-3.01 4.25226,4.25226 0 0 1 1.39,-0.93 4.25226,4.25226 0 0 1 1.62,-0.32 4.25226,4.25226 0 0 1 3,1.25"
     class="st5"
     id="path162"
     inkscape:connector-curvature="0"
     style="stroke:#000000;stroke-width:0.72000003;stroke-linecap:round;stroke-linejoin:round" /></g>
</svg>

<?xml version='1.0' encoding='UTF-8'?>
<!DOCTYPE svg PUBLIC "-//W3C//DTD SVG 1.0//EN" "C:\SeeVisioDTD\svg10.dtd">
<!--
/*******************************************************************************
* Copyright (c) 2010-2014 ITER Organization.
* All rights reserved. This program and the accompanying materials
* are made available under the terms of the Eclipse Public License v1.0
* which accompanies this distribution, and is available at
* http://www.eclipse.org/legal/epl-v10.html
******************************************************************************/
-->
<svg xmlns="http://www.w3.org/2000/svg" xmlns:xlink="http://www.w3.org/1999/xlink" width="51pt" height="66pt" viewBox="0 0 51 66" version="1.1">
<g id="surface1">
<path style=" stroke:none;fill-rule:evenodd;fill:rgb(100%,100%,100%);fill-opacity:1;" d="M 1.8125 1.351562 L 1.839844 1.351562 L 1.839844 1.390625 L 1.8125 1.390625 Z M 1.8125 1.351562 "/>
<path style=" stroke:none;fill-rule:evenodd;fill:rgb(100%,100%,100%);fill-opacity:1;" d="M 49.617188 65.089844 L 49.644531 65.089844 L 49.644531 65.128906 L 49.617188 65.128906 Z M 49.617188 65.089844 "/>
<path style=" stroke:none;fill-rule:evenodd;fill:rgb(65.098039%,65.098039%,65.098039%);fill-opacity:1;" d="M 46.5 45.390625 C 48.601562 41.753906 49.707031 37.628906 49.707031 33.429688 C 49.707031 29.230469 48.601562 25.101562 46.5 21.464844 C 42.230469 14.070312 34.339844 9.507812 25.800781 9.503906 C 22.355469 9.503906 18.953125 10.246094 15.824219 11.679688 C 7.320312 15.578125 1.871094 24.074219 1.875 33.429688 C 1.871094 42.78125 7.320312 51.28125 15.824219 55.179688 C 18.953125 56.613281 22.355469 57.355469 25.800781 57.355469 C 34.339844 57.347656 42.230469 52.789062 46.5 45.390625 Z M 46.5 45.390625 "/>
<path style="fill:none;stroke-width:0.72;stroke-linecap:round;stroke-linejoin:round;stroke:rgb(0%,0%,0%);stroke-opacity:1;stroke-miterlimit:3;" d="M 9.250008 13.327089 L 10.760426 14.816674 " transform="matrix(1.874998,0,0,1.874998,0,0.0000102487)"/>
<path style="fill:none;stroke-width:0.72;stroke-linecap:round;stroke-linejoin:round;stroke:rgb(0%,0%,0%);stroke-opacity:1;stroke-miterlimit:3;" d="M 7.381256 17.83751 L 9.500008 17.83751 " transform="matrix(1.874998,0,0,1.874998,0,0.0000102487)"/>
<path style="fill:none;stroke-width:0.72;stroke-linecap:round;stroke-linejoin:round;stroke:rgb(0%,0%,0%);stroke-opacity:1;stroke-miterlimit:3;" d="M 9.250008 22.347931 L 10.800009 20.887513 " transform="matrix(1.874998,0,0,1.874998,0,0.0000102487)"/>
<path style="fill:none;stroke-width:0.72;stroke-linecap:round;stroke-linejoin:round;stroke:rgb(0%,0%,0%);stroke-opacity:1;stroke-miterlimit:3;" d="M 18.270849 22.347931 L 16.770848 20.827096 " transform="matrix(1.874998,0,0,1.874998,0,0.0000102487)"/>
<path style="fill:none;stroke-width:0.72;stroke-linecap:round;stroke-linejoin:round;stroke:rgb(0%,0%,0%);stroke-opacity:1;stroke-miterlimit:3;" d="M 20.131268 17.83751 L 18.060432 17.83751 " transform="matrix(1.874998,0,0,1.874998,0,0.0000102487)"/>
<path style="fill:none;stroke-width:0.72;stroke-linecap:round;stroke-linejoin:round;stroke:rgb(0%,0%,0%);stroke-opacity:1;stroke-miterlimit:3;" d="M 24.800022 24.208349 L 8.439591 29.429187 " transform="matrix(1.874998,0,0,1.874998,0,0.0000102487)"/>
<path style="fill:none;stroke-width:0.72;stroke-linecap:round;stroke-linejoin:round;stroke:rgb(0%,0%,0%);stroke-opacity:1;stroke-miterlimit:3;" d="M 24.800022 24.208349 C 25.920856 22.268764 26.51044 20.068762 26.51044 17.829177 C 26.51044 15.589591 25.920856 13.387506 24.800022 11.447921 C 22.522936 7.504168 18.314599 5.070832 13.760429 5.068749 C 11.922927 5.068749 10.108342 5.464583 8.439591 6.229167 C 3.90417 8.308335 0.997918 12.839589 1.000001 17.829177 C 0.997918 22.816681 3.90417 27.350018 8.439591 29.429187 C 10.108342 30.193771 11.922927 30.589605 13.760429 30.589605 C 18.314599 30.585438 22.522936 28.154186 24.800022 24.208349 Z M 24.800022 24.208349 " transform="matrix(1.874998,0,0,1.874998,0,0.0000102487)"/>
<path style="fill:none;stroke-width:0.72;stroke-linecap:round;stroke-linejoin:round;stroke:rgb(0%,0%,0%);stroke-opacity:1;stroke-miterlimit:3;" d="M 24.800022 11.456255 L 8.439591 6.2375 " transform="matrix(1.874998,0,0,1.874998,0,0.0000102487)"/>
<path style="fill:none;stroke-width:0.72;stroke-linecap:round;stroke-linejoin:round;stroke:rgb(0%,0%,0%);stroke-opacity:1;stroke-miterlimit:3;" d="M 18.270849 13.327089 L 16.789598 14.858341 C 17.572932 15.652092 18.010432 16.722926 18.010432 17.83751 C 18.008349 18.964594 17.558349 20.043762 16.760431 20.837513 C 16.362514 21.237513 15.891681 21.552097 15.370847 21.768764 C 14.86043 21.97918 14.312512 22.087514 13.760429 22.087514 C 12.631261 22.087514 11.547927 21.637513 10.750009 20.837513 C 9.954175 20.043762 9.504175 18.964594 9.500008 17.83751 C 9.500008 16.708342 9.950009 15.625008 10.750009 14.827091 C 11.147926 14.429174 11.620843 14.112507 12.139594 13.897923 C 12.654178 13.687506 13.204178 13.57709 13.760429 13.57709 C 14.887513 13.581256 15.964597 14.031257 16.760431 14.827091 " transform="matrix(1.874998,0,0,1.874998,0,0.0000102487)"/>
</g>
</svg>
